X:1
T:Title
%%score { ( 1 3 4 ) | ( 2 5 6 ) }
L:1/8
Q:1/4=84
M:4/4
K:Ab
V:1 treble nm="Grand Piano"
V:3 treble 
V:4 treble 
V:2 bass 
V:5 bass 
V:6 bass 
V:1
 (3[CE][CE][CE] [CE]>[CE] [DF]>[CE] [_C=D]>[=CE] | [EA]>[CE] [EA]>B c4 | d>c B>=A z2 (3z GB | %3
w: C.~Harold~Lowden * * * * * * * *|||
 z4 A4 | (3[CE][CE][CE] [CE]>[CE] [DF]>[CE] [_C=D]>[=CE] | [EA]>[CE] [EA]>B c4 | %6
w: |||
 (3BBB [Ge]>[EG] [GB]>[FA] [EG]>[=DF] | E2 (3EEE E2 E2 | z2 F_G d2 z2 | z4 [E=c]4 | B4 z4 | %11
w: |||||
 z4 [FA]4 | (3[FA][FA][FA] [FA]>[=EG] [FB]>[FA] [_EG]>[DF] | [CF]>[CE] A>c e2 [Af]2 | %14
w: |||
 [EAe]>[EA] [EA]>[FAd] [EAc]2 [DEB]2 |[M:3/4] [A,CEA]6 |] %16
w: ||
V:2
 (3[A,,A,][A,,A,][A,,A,] [A,,A,]>[A,,A,] [A,,A,]>[A,,A,] [A,,A,]>[A,,A,] | %1
 [C,A,]>[A,,A,] [C,A,]>[E,G,E] [A,E]4 | [E,B,E]>[E,A,E] [E,G,E]>[E,_G,E] E2 z2 | z4 z2 A,2 | %4
 (3[A,,A,][A,,A,][A,,A,] [A,,A,]>[A,,A,] [A,,A,]>[A,,A,] [A,,A,]>[A,,A,] | %5
 [C,A,]>[A,,A,] [C,A,]>[E,G,E] [A,E]4 | %6
 (3[G,B,E][G,B,E][G,B,E] [E,B,]>[E,B,] [B,,B,]>[B,,B,] [B,,B,]>[B,,A,] | [E,G,]6 z2 | %8
 z4 z2 [E,G,D]2 | z z/ E/ E>=D [E,A,C]2 E,2 | z4 z2 [C,=E,B,]2 | %11
 z z/ F/ [C,F,A,]2 [C,F,A,]2 [C,F,]2 | (3[D,D][D,D][D,D] [D,D]>[D,D] [D,A,]>[D,A,] [D,A,]>[D,A,] | %13
 [A,,A,]>[A,,A,][K:treble] [A,CE]>[A,EA] [A,CA]2[K:bass] [D,D]2 | C,>C, C,>B,, E,2 E,2 | %15
[M:3/4] A,,6 |] %16
V:3
 x8 | x8 | z4 B4 | [Ec]>[DB] [CA]>[_CG] [A,=C]2 (3z D=D | x8 | x8 | x8 | x8 | %8
 (3[Ed-][Ed-][Ed-] d2 [D=G]D [Gd]2 | [Fd]>c c>_c z2 [A,C]2 | (3CCC z2 [=EB]>[Bd] [Ac]>B | %11
 [GB]>A [FA]>[=EG] z2 A,2 | x8 | x8 | x8 |[M:3/4] x6 |] %16
V:4
 x8 | x8 | z4 z2 E2 | z4 z2 C2 | x8 | x8 | x8 | x8 | x8 | x8 | z2 =D>=E z4 | x8 | x8 | x8 | x8 | %15
[M:3/4] x6 |] %16
V:5
 x8 | x8 | z4 [E,=G,]4 | [A,,A,]>[A,,A,] [A,,A,]>[A,,A,] z2 (3z _CC | x8 | x8 | x8 | x8 | %8
 E,,2 [E,G,D]2 [E,G,]2 z z/ _G/ | A,,2 [E,A,C]2 z4 | C,,2 [C,=E,B,]2 [C,E,B,]2 z z/ G/ | %11
 F,,2 z2 z4 | x8 | x2[K:treble] x4[K:bass] x2 | x8 |[M:3/4] x6 |] %16
V:6
 x8 | x8 | x8 | z4 A,,4 | x8 | x8 | x8 | x8 | x8 | x8 | x8 | x8 | x8 | x2[K:treble] x4[K:bass] x2 | %14
 x8 |[M:3/4] x6 |] %16

